X: 42842
T: Wild Duck's Flight, The
R: jig
M: 6/8
K: Dmajor
A,|DCD AFD|GBG AFD|GBG FAF|ECE GFE|
DCD AFD|GBG AFD|GBG AFD|GEC D2:|
A|dfa {b}afd|g{a}fg bge|afd gec|dcd ecA|
dfa {b}afd|gfg bge|afd Bgf|edc d2 A|
dfa {b}afd|g{a}fg bge|afd gec|dcd ecA|
dfd ecA|dBG AFD|GBG AFD|GEC D2||

